X: 1
T: Man With One Kidney, The
M: 4/4
L: 1/8
R: hornpipe
K: Gmaj
Bc|(3ded (3cBA BGAB|cEGE DG=FG|EG (3=FED Cc (3BAG|(3FGA (3GFE Dd~d2|
ec~c2 d2(3BAG|ABAG EDB,d|cBce dGBd|ADFA  G2:|
|:~d2|gd~d2 BGBd|DGBd (3cBA (3 BAG|cG~G2 A=F (3ABc|cG~G2 A=F (3ABc|
(3ded (3cBA BGAB|ABAG EDB,d|~c3e dGBd|ADFA  G2:|
